dist/images/icons/search.svg

<svg id="Слой_1" xmlns="http://www.w3.org/2000/svg" viewBox="-233 237.3 128 122" enable-background="new -233 237.3 128 122"><style>.st0{fill:none;stroke:#FFF}.st1{fill:#FFF}.st2{fill:none}.st3{filter:url(#Adobe_OpacityMaskFilter)}.st4{mask:url(#mask-2);fill:#FFF}</style><title>Group</title><g id="Page-1"><g id="Desktop-HD"><g id="Group" transform="translate(-1 1)"><circle id="Oval-1" class="st0" cx="-148.5" cy="280.8" r="43.5"/><path id="Path-13" class="st0" d="M-148.2 246.9s-33.8 1.4-33.8 32.7"/><path id="Rectangle-17" class="st1" d="M-230.9 346.2l31.8-31.8c1.2-1.2 3.1-1.2 4.2 0l6.7 6.7c1.2 1.2 1.2 3.1 0 4.2l-31.8 31.8c-1.2 1.2-3.1 1.2-4.2 0l-6.7-6.7c-1.2-1.1-1.2-3 0-4.2z"/><path id="Rectangle-17_1_" class="st1" d="M-180.136 310.837l-23.9 23.9-3.96-3.96 23.9-23.9z"/><g id="Rectangle-7" transform="translate(41)"><g id="Mask"><circle id="path-1_1_" class="st2" cx="-189.5" cy="280.8" r="43.5"/></g><defs><filter id="Adobe_OpacityMaskFilter" filterUnits="userSpaceOnUse" x="-199" y="269.3" width="74" height="61"><feColorMatrix values="1 0 0 0 0 0 1 0 0 0 0 0 1 0 0 0 0 0 1 0"/></filter></defs><mask maskUnits="userSpaceOnUse" x="-199" y="269.3" width="74" height="61" id="mask-2"><g class="st3"><circle id="path-1" class="st1" cx="-189.5" cy="280.8" r="43.5"/></g></mask><path class="st4" d="M-177 323.3h1v1h-1v-1m0-46.5c0-1.4 1.1-2.5 2.5-2.5h26c1.4 0 2.5 1.1 2.5 2.5s-1.1 2.5-2.5 2.5h-26c-1.4 0-2.5-1.1-2.5-2.5m.5 8.5h43v-1h-43v1m0 5h36v-1h-36v1m0 5h31v-1h-31v1m0 5h37v-1h-37v1m0 5h23v-1h-23v1m0 5h34v-1h-34v1m4.5 13h1v1h-1v-1m5 0h1v1h-1v-1m-32-51c0-1.7 1.3-3 3-3h14v61h-14c-1.7 0-3-1.3-3-3v-55m4 2h1v1h-1v-1m4 0h1v1h-1v-1m4 0h1v1h-1v-1zm5-4l1-1v61l-1-1h54c1.1 0 2-.9 2-2v-55c0-1.1-.9-2-2-2h-54zm54-1c1.7 0 3 1.3 3 3v55c0 1.7-1.4 3-3 3h-54v-61"/></g></g></g></g></svg>

<?xml version="1.0" encoding="utf-8"?>
<!-- Generator: Adobe Illustrator 19.1.0, SVG Export Plug-In . SVG Version: 6.00 Build 0)  -->
<svg version="1.1" id="Слой_1" xmlns:sketch="http://www.bohemiancoding.com/sketch/ns"
	 xmlns="http://www.w3.org/2000/svg" xmlns:xlink="http://www.w3.org/1999/xlink" x="0px" y="0px" viewBox="-233 237.3 128 122"
	 style="enable-background:new -233 237.3 128 122;" xml:space="preserve">
<style type="text/css">
	.st0{fill:none;stroke:#FFFFFF;}
	.st1{fill:#FFFFFF;}
	.st2{fill:none;}
	.st3{filter:url(#Adobe_OpacityMaskFilter);}
	.st4{mask:url(#mask-2);fill:#FFFFFF;}
</style>
<title>Group</title>
<desc>Created with Sketch.</desc>
<g id="Page-1" sketch:type="MSPage">
	<g id="Desktop-HD" transform="translate(-265.000000, -57.000000)" sketch:type="MSArtboardGroup">
		<g id="Group" transform="translate(264.000000, 58.000000)" sketch:type="MSLayerGroup">
			<circle id="Oval-1" sketch:type="MSShapeGroup" class="st0" cx="-148.5" cy="280.8" r="43.5">
			</circle>
			<path id="Path-13" sketch:type="MSShapeGroup" class="st0" d="M-148.2,246.9c0,0-33.8,1.4-33.8,32.7"/>
			<path id="Rectangle-17" sketch:type="MSShapeGroup" class="st1" d="M-230.9,346.2l31.8-31.8c1.2-1.2,3.1-1.2,4.2,0l6.7,6.7
				c1.2,1.2,1.2,3.1,0,4.2l-31.8,31.8c-1.2,1.2-3.1,1.2-4.2,0l-6.7-6.7C-232.1,349.3-232.1,347.4-230.9,346.2z"/>
			
				<rect id="Rectangle-17_1_" x="-211" y="318.1" sketch:type="MSShapeGroup" transform="matrix(-0.7071 0.7071 -0.7071 -0.7071 -104.4051 684.9635)" class="st1" width="33.8" height="5.6">
			</rect>
			<g id="Rectangle-7" transform="translate(41.000000, 0.000000)">
				<g id="Mask" sketch:type="MSShapeGroup">
					<circle id="path-1_1_" class="st2" cx="-189.5" cy="280.8" r="43.5"/>
				</g>
				<defs>
					<filter id="Adobe_OpacityMaskFilter" filterUnits="userSpaceOnUse" x="-199" y="269.3" width="74" height="61">
						<feColorMatrix  type="matrix" values="1 0 0 0 0  0 1 0 0 0  0 0 1 0 0  0 0 0 1 0"/>
					</filter>
				</defs>
				<mask maskUnits="userSpaceOnUse" x="-199" y="269.3" width="74" height="61" id="mask-2">
					<g class="st3">
						<circle id="path-1" class="st1" cx="-189.5" cy="280.8" r="43.5"/>
					</g>
				</mask>
				<path sketch:type="MSShapeGroup" class="st4" d="M-177,323.3h1v1h-1V323.3 M-177,276.8c0-1.4,1.1-2.5,2.5-2.5h26
					c1.4,0,2.5,1.1,2.5,2.5c0,1.4-1.1,2.5-2.5,2.5h-26C-175.9,279.3-177,278.2-177,276.8 M-176.5,285.3h43v-1h-43V285.3
					 M-176.5,290.3h36v-1h-36V290.3 M-176.5,295.3h31v-1h-31V295.3 M-176.5,300.3h37v-1h-37V300.3 M-176.5,305.3h23v-1h-23V305.3
					 M-176.5,310.3h34v-1h-34V310.3 M-172,323.3h1v1h-1V323.3 M-167,323.3h1v1h-1V323.3 M-199,272.3c0-1.7,1.3-3,3-3h14v61h-14
					c-1.7,0-3-1.3-3-3V272.3 M-195,274.3h1v1h-1V274.3 M-191,274.3h1v1h-1V274.3 M-187,274.3h1v1h-1V274.3L-187,274.3z M-182,270.3
					l1-1v61l-1-1h54c1.1,0,2-0.9,2-2v-55c0-1.1-0.9-2-2-2H-182L-182,270.3z M-128,269.3c1.7,0,3,1.3,3,3v55c0,1.7-1.4,3-3,3h-54v-61
					"/>
			</g>
		</g>
	</g>
</g>
</svg>
